X:462
T:Linnen Hall.
M:6/8
L:1/8
K:G
G2 G A2 A | B2 c dBG | E2 E c2 B | ABG FED |
G2 G A2 A | B2 c dBG | EcB AGF | G3 G3 :|
d2 d e2 e | d2 g dBG | d2 d e2 e | dBG A3 |
d2 d e2 e | d2 g g2 f | egf ed^c | d3 D3 |
G2 G A2 A | B2 c dBG | E2 E c2 B | ABG FED |
G2 G A2 A | B2 c dBG | EcB AGF | G3 G3 ||
